X:53
T:Steyrer Tanz in G, nr. 10
C:traditionell
R:Steirer
A:Hallstatt, Salzkammergut
B:Corpus Musicae Popularis Austriacae (COMPA), 5.Band: J.M.Schmalnauer " Tanz Musik", Verlag Boehlau, Wien 1996
S:manuscript des Johann Michael Schmalnauer um 1820
N:im der quelle in G
Z:abc transcription Simon Wascher
F:http://simonwascher.info/TradArchiv/
M:3/4
L:1/8
K:G
V:1
%violino 1mo
P:h:Ap
Bd |\
Aced c2 | BDBF G2 | cDcDFA | GBDGBd |\
Aced c2 | BDBF G2 | cDcDFA | "in D" G4 :|
V:2
%violino 2do
GB |\
FAcB A2 | GG,GD B,2 | AFAFDC | B,DG,DGB |\
FAcB A2 | GG,GD B,2 | AFAFDC | B,4 :|
